X: 3341
T: Belles Of Tipperary, The
R: reel
M: 4/4
K: Dmajor
|:DA,A,2 DEFA|defe dBBA|B2 AF ABde|fede fee2|
dA A2 DEFA|defe dBBA|B2 AF ABdB|AFEG FDD2:|
|:a3b afdf|gfed Bdef|g2gf gbag|fgaf egfe|
dBB2 AFEF|DFF2 ABdf|aff2 dBAF|Aaag fdd2:|

